X:1325
T:Buck from the Mountain, The
M:C|
L:1/8
R:hornpipe
D:Dan: All Things Considered
Z:Devin McCabe
K:D
dB|:AFAd B2Bd|AFAd f2fe|dfgf edBc|dBAF EFDB|
!AFAd B2Bd|AFAd f2fe|dfgf edBc|1dAfe d2Bd:|2dAfe defa|
!:gfge cABc|dcde fdfa|gfge cABc|dBAF EFDB|
!AFAd B2Bd|AFAd f2fe|dfgf edBc|1dAfe defa:|2dAfe d2Bd||
